build/assets/img/stage-analysis/image-element-8.svg

<svg width="187" height="132" viewBox="0 0 187 132" fill="none" xmlns="http://www.w3.org/2000/svg">
<g filter="url(#filter0_di)">
<path d="M20.3513 106.91L33.7527 87.4421C34.4006 86.5023 35.2282 85.7014 36.1875 85.0859C37.1467 84.4704 38.2183 84.0527 39.3399 83.8572C40.4615 83.6616 41.6106 83.692 42.7204 83.9467C43.8302 84.2014 44.8784 84.6752 45.8039 85.3406L47.6886 86.687C48.7767 87.4683 50.0317 87.9833 51.3533 88.191C52.675 88.3987 54.0267 88.2933 55.3005 87.8832C56.5743 87.4731 57.735 86.7697 58.6899 85.8291C59.6448 84.8885 60.3674 83.7368 60.8 82.4659L67.3059 63.3618C67.8876 61.6632 68.983 60.1893 70.4393 59.1458C71.8956 58.1024 73.6401 57.5415 75.4292 57.5415C77.2183 57.5415 78.9627 58.1024 80.419 59.1458C81.8753 60.1893 82.9708 61.6632 83.5524 63.3618L86.6966 72.6137C87.257 74.2524 88.2961 75.6837 89.6784 76.721C91.0607 77.7583 92.7221 78.3535 94.4462 78.4291C96.1703 78.5047 97.8772 78.0572 99.3443 77.1448C100.811 76.2325 101.971 74.8976 102.671 73.3141L105.39 67.1281C106.011 65.7264 106.993 64.5163 108.234 63.6227C109.476 62.729 110.933 62.1841 112.455 62.0442C113.976 61.9042 115.507 62.1742 116.89 62.8264C118.273 63.4786 119.458 64.4893 120.322 65.7544C121.22 67.077 122.467 68.1224 123.924 68.7733C125.38 69.4242 126.988 69.6549 128.568 69.4396C130.148 69.2242 131.636 68.5713 132.867 67.554C134.098 66.5367 135.022 65.1953 135.536 63.6802L138.58 54.7377C141.38 46.5503 153.151 47.1507 155.072 55.6474L166.724 106.91C166.724 106.91 20.7591 106.501 20.3513 106.91Z" fill="#F985A0"/>
<g opacity="0.3">
<path opacity="0.3" d="M20.3513 106.91L33.7527 87.4421C34.4006 86.5023 35.2282 85.7014 36.1875 85.0859C37.1467 84.4704 38.2183 84.0527 39.3399 83.8572C40.4615 83.6616 41.6106 83.692 42.7204 83.9467C43.8302 84.2014 44.8784 84.6752 45.8039 85.3406L47.6886 86.687C48.7767 87.4683 50.0317 87.9833 51.3533 88.191C52.675 88.3987 54.0267 88.2933 55.3005 87.8832C56.5743 87.4731 57.735 86.7697 58.6899 85.8291C59.6448 84.8885 60.3674 83.7368 60.8 82.4659L67.3059 63.3618C67.8876 61.6632 68.983 60.1893 70.4393 59.1458C71.8956 58.1024 73.6401 57.5415 75.4292 57.5415C77.2183 57.5415 78.9627 58.1024 80.419 59.1458C81.8753 60.1893 82.9708 61.6632 83.5524 63.3618L86.6966 72.6137C87.257 74.2524 88.2961 75.6837 89.6784 76.721C91.0607 77.7583 92.7221 78.3535 94.4462 78.4291C96.1703 78.5047 97.8772 78.0572 99.3443 77.1448C100.811 76.2325 101.971 74.8976 102.671 73.3141L105.39 67.1281C106.011 65.7264 106.993 64.5163 108.234 63.6227C109.476 62.729 110.933 62.1841 112.455 62.0442C113.976 61.9042 115.507 62.1742 116.89 62.8264C118.273 63.4786 119.458 64.4893 120.322 65.7544C121.22 67.077 122.467 68.1224 123.924 68.7733C125.38 69.4242 126.988 69.6549 128.568 69.4396C130.148 69.2242 131.636 68.5713 132.867 67.554C134.098 66.5367 135.022 65.1953 135.536 63.6802L138.58 54.7377C141.38 46.5503 153.151 47.1507 155.072 55.6474L166.724 106.91C166.724 106.91 20.7591 106.501 20.3513 106.91Z" fill="#B6B6B6"/>
</g>
<path d="M19.9795 107.41L30.8528 75.4338C31.4123 73.7871 32.4659 72.3548 33.8689 71.3335C35.2719 70.3123 36.9554 69.7522 38.6882 69.7303C40.421 69.7084 42.1181 70.2256 43.5463 71.211C44.9745 72.1965 46.0637 73.6017 46.6644 75.2336L51.8745 89.407C52.3881 90.8042 53.2617 92.0396 54.4063 92.9869C55.5509 93.9342 56.9254 94.5596 58.3894 94.7992C59.8535 95.0388 61.3546 94.884 62.7396 94.3506C64.1246 93.8172 65.3438 92.9244 66.2726 91.7632L70.4951 86.4869C71.8465 84.7993 73.7937 83.6997 75.932 83.4168C78.0702 83.1338 80.2347 83.6893 81.9755 84.9676L91.8158 92.1908C93.2541 93.2478 94.9899 93.8181 96.7723 93.8192H109.295C111.073 93.8189 112.806 94.386 114.242 95.4385L123.557 102.28C124.463 102.946 125.494 103.423 126.587 103.681C127.68 103.94 128.815 103.975 129.922 103.785C131.029 103.595 132.087 103.183 133.033 102.575C133.978 101.966 134.793 101.173 135.427 100.242L144.171 87.3966C144.28 87.2328 144.397 87.0782 144.515 86.9235C148.031 82.4568 155.062 83.4029 157.608 88.4791L166.969 107.11C166.969 107.11 19.9795 106.81 19.9795 107.41Z" fill="#B4D1FA"/>
<path d="M166.914 107.11L155.543 97.8128C139.939 86.2867 132.537 108.22 120.268 91.7632L116.045 86.4868C114.694 84.7993 112.747 83.6997 110.608 83.4167C108.47 83.1338 106.306 83.6892 104.565 84.9676L99.6719 88.561C95.0192 91.9753 89.406 93.8167 83.6429 93.8191H77.3001C75.5186 93.817 73.7827 94.3841 72.3437 95.4384L63.0289 102.28C59.2051 105.091 56.5411 105.464 50.4249 100.315C50.4249 100.315 43.7922 94.8562 43.6291 94.7016C40.3762 90.7261 33.5713 90.7261 30.6445 94.7016C29.9378 95.6568 29.2038 96.521 28.4064 97.4307L19.6172 107.156C19.6172 107.156 166.914 106.501 166.914 107.11Z" fill="#0A3D76"/>
<path d="M60.3918 33.2593C60.3918 33.3866 55.1817 33.4958 48.7665 33.4958C42.3512 33.4958 37.1501 33.3866 37.1501 33.2593C37.1501 33.1319 42.3603 33.0227 48.7846 33.0227C55.2089 33.0227 60.3918 33.1319 60.3918 33.2593Z" fill="#F985A0"/>
<path d="M34.5955 31.267H30.6177V35.2607H34.5955V31.267Z" fill="#F985A0"/>
<path d="M104.266 33.2593C104.266 33.3866 99.0556 33.4958 92.6312 33.4958C86.2069 33.4958 81.0059 33.3866 81.0059 33.2593C81.0059 33.1319 86.2069 33.0227 92.6312 33.0227C99.0556 33.0227 104.266 33.1319 104.266 33.2593Z" fill="#F985A0"/>
<path d="M78.46 31.267H74.4822V35.2607H78.46V31.267Z" fill="#B4D1FA"/>
<path d="M148.131 33.2593C148.131 33.3866 142.93 33.4958 136.505 33.4958C130.081 33.4958 124.88 33.3866 124.88 33.2593C124.88 33.1319 130.081 33.0227 136.505 33.0227C142.93 33.0227 148.131 33.1319 148.131 33.2593Z" fill="#F985A0"/>
<path d="M122.334 31.267H118.356V35.2607H122.334V31.267Z" fill="#0A3D76"/>
</g>
<defs>
<filter id="filter0_di" x="17.6172" y="29.267" width="155.351" height="84.1434" filterUnits="userSpaceOnUse" color-interpolation-filters="sRGB">
<feFlood flood-opacity="0" result="BackgroundImageFix"/>
<feColorMatrix in="SourceAlpha" type="matrix" values="0 0 0 0 0 0 0 0 0 0 0 0 0 0 0 0 0 0 127 0"/>
<feOffset dx="2" dy="2"/>
<feGaussianBlur stdDeviation="2"/>
<feColorMatrix type="matrix" values="0 0 0 0 0 0 0 0 0 0 0 0 0 0 0 0 0 0 0.15 0"/>
<feBlend mode="normal" in2="BackgroundImageFix" result="effect1_dropShadow"/>
<feBlend mode="normal" in="SourceGraphic" in2="effect1_dropShadow" result="shape"/>
<feColorMatrix in="SourceAlpha" type="matrix" values="0 0 0 0 0 0 0 0 0 0 0 0 0 0 0 0 0 0 127 0" result="hardAlpha"/>
<feOffset dx="-2" dy="-2"/>
<feGaussianBlur stdDeviation="2"/>
<feComposite in2="hardAlpha" operator="arithmetic" k2="-1" k3="1"/>
<feColorMatrix type="matrix" values="0 0 0 0 0 0 0 0 0 0 0 0 0 0 0 0 0 0 0.2 0"/>
<feBlend mode="normal" in2="shape" result="effect2_innerShadow"/>
</filter>
</defs>
</svg>

<svg width="187" height="132" fill="none" xmlns="http://www.w3.org/2000/svg"><g filter="url(#filter0_di)"><path d="M20.351 106.91l13.402-19.468a8.596 8.596 0 012.434-2.356 8.558 8.558 0 019.617.255l1.885 1.346a8.562 8.562 0 007.611 1.196 8.575 8.575 0 003.39-2.054 8.619 8.619 0 002.11-3.363l6.506-19.104a8.622 8.622 0 013.133-4.216 8.567 8.567 0 019.98 0 8.621 8.621 0 013.133 4.216l3.145 9.252a8.623 8.623 0 002.981 4.107 8.568 8.568 0 0012.993-3.407l2.719-6.186a8.624 8.624 0 012.844-3.505 8.57 8.57 0 018.656-.797 8.598 8.598 0 013.432 2.928 8.59 8.59 0 003.602 3.02 8.549 8.549 0 008.943-1.22 8.615 8.615 0 002.669-3.874l3.044-8.942c2.8-8.188 14.571-7.587 16.492.91l11.652 51.262s-145.965-.409-146.373 0z" fill="#F985A0"/><path opacity=".3" d="M20.351 106.91l13.402-19.468a8.596 8.596 0 012.434-2.356 8.558 8.558 0 019.617.255l1.885 1.346a8.562 8.562 0 007.611 1.196 8.575 8.575 0 003.39-2.054 8.619 8.619 0 002.11-3.363l6.506-19.104a8.622 8.622 0 013.133-4.216 8.567 8.567 0 019.98 0 8.621 8.621 0 013.133 4.216l3.145 9.252a8.623 8.623 0 002.981 4.107 8.568 8.568 0 0012.993-3.407l2.719-6.186a8.624 8.624 0 012.844-3.505 8.57 8.57 0 018.656-.797 8.598 8.598 0 013.432 2.928 8.59 8.59 0 003.602 3.02 8.549 8.549 0 008.943-1.22 8.615 8.615 0 002.669-3.874l3.044-8.942c2.8-8.188 14.571-7.587 16.492.91l11.652 51.262s-145.965-.409-146.373 0z" fill="#B6B6B6"/><path d="M19.98 107.41l10.873-31.976a8.422 8.422 0 013.016-4.1 8.368 8.368 0 019.677-.123 8.42 8.42 0 013.118 4.023l5.21 14.173a8.415 8.415 0 002.532 3.58 8.35 8.35 0 008.333 1.364 8.382 8.382 0 003.534-2.588l4.222-5.276a8.356 8.356 0 0111.48-1.52l9.84 7.224a8.378 8.378 0 004.957 1.628h12.523c1.778 0 3.511.567 4.947 1.62l9.315 6.841a8.36 8.36 0 0011.87-2.038l8.744-12.845c.109-.164.226-.319.344-.474 3.516-4.466 10.547-3.52 13.093 1.556l9.361 18.631s-146.99-.3-146.99.3z" fill="#B4D1FA"/><path d="M166.914 107.11l-11.371-9.297c-15.604-11.526-23.006 10.407-35.275-6.05l-4.223-5.276a8.356 8.356 0 00-11.48-1.52l-4.893 3.594a27.11 27.11 0 01-16.03 5.258H77.3a8.369 8.369 0 00-4.956 1.62l-9.315 6.841c-3.824 2.811-6.488 3.184-12.604-1.965 0 0-6.633-5.459-6.796-5.613-3.253-3.976-10.058-3.976-12.984 0-.707.955-1.441 1.819-2.239 2.729l-8.789 9.725s147.297-.655 147.297-.046z" fill="#0A3D76"/><path d="M60.392 33.26c0 .127-5.21.236-11.626.236-6.415 0-11.616-.11-11.616-.237s5.21-.236 11.635-.236c6.424 0 11.607.109 11.607.236zm-25.796-1.993h-3.978v3.994h3.978v-3.994zm69.67 1.993c0 .127-5.21.236-11.635.236-6.424 0-11.625-.11-11.625-.237s5.2-.236 11.625-.236 11.635.109 11.635.236z" fill="#F985A0"/><path d="M78.46 31.267h-3.978v3.994h3.978v-3.994z" fill="#B4D1FA"/><path d="M148.131 33.26c0 .127-5.201.236-11.626.236-6.424 0-11.625-.11-11.625-.237s5.201-.236 11.625-.236c6.425 0 11.626.109 11.626.236z" fill="#F985A0"/><path d="M122.334 31.267h-3.978v3.994h3.978v-3.994z" fill="#0A3D76"/></g><defs><filter id="filter0_di" x="17.617" y="29.267" width="155.351" height="84.143" filterUnits="userSpaceOnUse" color-interpolation-filters="sRGB"><feFlood flood-opacity="0" result="BackgroundImageFix"/><feColorMatrix in="SourceAlpha" values="0 0 0 0 0 0 0 0 0 0 0 0 0 0 0 0 0 0 127 0"/><feOffset dx="2" dy="2"/><feGaussianBlur stdDeviation="2"/><feColorMatrix values="0 0 0 0 0 0 0 0 0 0 0 0 0 0 0 0 0 0 0.15 0"/><feBlend in2="BackgroundImageFix" result="effect1_dropShadow"/><feBlend in="SourceGraphic" in2="effect1_dropShadow" result="shape"/><feColorMatrix in="SourceAlpha" values="0 0 0 0 0 0 0 0 0 0 0 0 0 0 0 0 0 0 127 0" result="hardAlpha"/><feOffset dx="-2" dy="-2"/><feGaussianBlur stdDeviation="2"/><feComposite in2="hardAlpha" operator="arithmetic" k2="-1" k3="1"/><feColorMatrix values="0 0 0 0 0 0 0 0 0 0 0 0 0 0 0 0 0 0 0.2 0"/><feBlend in2="shape" result="effect2_innerShadow"/></filter></defs></svg>
